Newaita-dark/apps/128/dippi.svg

<?xml version="1.0" encoding="UTF-8"?>
<svg xmlns="http://www.w3.org/2000/svg" xmlns:xlink="http://www.w3.org/1999/xlink" width="128pt" height="128pt" viewBox="0 0 128 128" version="1.1">
<defs>
<linearGradient id="linear0" gradientUnits="userSpaceOnUse" x1="254" y1="233.5" x2="254" y2="254.666672" gradientTransform="matrix(0.250024,0,0,0.250024,-0.0000152602,53.75514)">
<stop offset="0" style="stop-color:rgb(0%,0%,0%);stop-opacity:0.27451;"/>
<stop offset="1" style="stop-color:rgb(0%,0%,0%);stop-opacity:0;"/>
</linearGradient>
<radialGradient id="radial0" gradientUnits="userSpaceOnUse" cx="450.908936" cy="189.579361" fx="450.908936" fy="189.579361" r="21.166656" gradientTransform="matrix(0.000000696681,-0.31253,-0.562554,-0.000000406154,200.584335,254.38133)">
<stop offset="0" style="stop-color:rgb(0%,0%,0%);stop-opacity:0.313725;"/>
<stop offset="0.222222" style="stop-color:rgb(0%,0%,0%);stop-opacity:0.27451;"/>
<stop offset="1" style="stop-color:rgb(0%,0%,0%);stop-opacity:0;"/>
</radialGradient>
<radialGradient id="radial1" gradientUnits="userSpaceOnUse" cx="450.908936" cy="189.579361" fx="450.908936" fy="189.579361" r="21.166656" gradientTransform="matrix(-0.000000696681,0.31253,0.562554,0.000000406154,-73.572195,-30.109915)">
<stop offset="0" style="stop-color:rgb(0%,0%,0%);stop-opacity:0.313725;"/>
<stop offset="0.222222" style="stop-color:rgb(0%,0%,0%);stop-opacity:0.27451;"/>
<stop offset="1" style="stop-color:rgb(0%,0%,0%);stop-opacity:0;"/>
</radialGradient>
<radialGradient id="radial2" gradientUnits="userSpaceOnUse" cx="450.908936" cy="189.579361" fx="450.908936" fy="189.579361" r="21.166656" gradientTransform="matrix(-0.000000696681,-0.31253,0.562554,-0.000000406154,-73.572195,254.38133)">
<stop offset="0" style="stop-color:rgb(0%,0%,0%);stop-opacity:0.313725;"/>
<stop offset="0.222222" style="stop-color:rgb(0%,0%,0%);stop-opacity:0.27451;"/>
<stop offset="1" style="stop-color:rgb(0%,0%,0%);stop-opacity:0;"/>
</radialGradient>
<radialGradient id="radial3" gradientUnits="userSpaceOnUse" cx="450.908936" cy="189.579361" fx="450.908936" fy="189.579361" r="21.166656" gradientTransform="matrix(0.000000696681,0.31253,-0.562554,0.000000406154,200.584327,-30.109917)">
<stop offset="0" style="stop-color:rgb(0%,0%,0%);stop-opacity:0.313725;"/>
<stop offset="0.222222" style="stop-color:rgb(0%,0%,0%);stop-opacity:0.27451;"/>
<stop offset="1" style="stop-color:rgb(0%,0%,0%);stop-opacity:0;"/>
</radialGradient>
<linearGradient id="linear1" gradientUnits="userSpaceOnUse" x1="840" y1="1455.118164" x2="840" y2="1695.118164" gradientTransform="matrix(0.0661521,0,0,-0.0661521,0.00000166683,208.394838)">
<stop offset="0" style="stop-color:rgb(38.039216%,38.039216%,38.039216%);stop-opacity:1;"/>
<stop offset="1" style="stop-color:rgb(25.882353%,25.882353%,25.882353%);stop-opacity:1;"/>
</linearGradient>
<linearGradient id="linear2" gradientUnits="userSpaceOnUse" x1="306.916656" y1="-25.791676" x2="305.954559" y2="-141.414581" gradientTransform="matrix(0.301399,0,0,0.869648,-23.416052,134.565393)">
<stop offset="0" style="stop-color:rgb(69.019608%,74.509804%,77.254902%);stop-opacity:1;"/>
<stop offset="1" style="stop-color:rgb(81.176471%,84.705882%,86.27451%);stop-opacity:1;"/>
</linearGradient>
<linearGradient id="linear3" gradientUnits="userSpaceOnUse" x1="444.5" y1="185.875" x2="444.5" y2="148.833328" gradientTransform="matrix(0.5,0,0,0.571428,169.333206,-297.38092)">
<stop offset="0" style="stop-color:rgb(30.196078%,71.372549%,67.45098%);stop-opacity:1;"/>
<stop offset="1" style="stop-color:rgb(0%,58.823529%,53.333333%);stop-opacity:1;"/>
</linearGradient>
<linearGradient id="linear4" gradientUnits="userSpaceOnUse" x1="960" y1="1415.118164" x2="960" y2="295.118103" gradientTransform="matrix(0.230747,0,0,0.230747,32.909809,-194.520889)">
<stop offset="0" style="stop-color:rgb(93.72549%,32.54902%,31.372549%);stop-opacity:1;"/>
<stop offset="1" style="stop-color:rgb(89.803922%,45.098039%,45.098039%);stop-opacity:1;"/>
</linearGradient>
</defs>
<g id="surface1">
<path style=" stroke:none;fill-rule:nonzero;fill:url(#linear0);" d="M 31.753906 112.136719 L 95.257812 112.136719 L 95.257812 117.429688 L 31.753906 117.429688 Z M 31.753906 112.136719 "/>
<path style=" stroke:none;fill-rule:nonzero;fill:url(#radial0);" d="M 95.257812 112.136719 L 105.84375 112.136719 L 105.84375 106.84375 L 95.257812 106.84375 Z M 95.257812 112.136719 "/>
<path style=" stroke:none;fill-rule:nonzero;fill:url(#radial1);" d="M 31.753906 112.136719 L 21.167969 112.136719 L 21.167969 117.429688 L 31.753906 117.429688 Z M 31.753906 112.136719 "/>
<path style=" stroke:none;fill-rule:nonzero;fill:url(#radial2);" d="M 31.753906 112.136719 L 21.167969 112.136719 L 21.167969 106.84375 L 31.753906 106.84375 Z M 31.753906 112.136719 "/>
<path style=" stroke:none;fill-rule:nonzero;fill:url(#radial3);" d="M 95.257812 112.136719 L 105.84375 112.136719 L 105.84375 117.429688 L 95.257812 117.429688 Z M 95.257812 112.136719 "/>
<path style=" stroke:none;fill-rule:nonzero;fill:url(#linear1);" d="M 26.460938 112.136719 C 23.527344 112.136719 21.167969 109.777344 21.167969 106.84375 L 21.167969 96.257812 L 105.84375 96.257812 L 105.84375 106.84375 C 105.84375 109.777344 103.484375 112.136719 100.550781 112.136719 Z M 26.460938 112.136719 "/>
<path style=" stroke:none;fill-rule:nonzero;fill:rgb(0%,0%,0%);fill-opacity:0.235294;" d="M 26.460938 111.804688 C 23.527344 111.804688 21.167969 109.445312 21.167969 106.511719 L 21.167969 105.851562 C 21.167969 108.78125 23.527344 111.144531 26.460938 111.144531 L 100.550781 111.144531 C 103.484375 111.144531 105.84375 108.78125 105.84375 105.851562 L 105.84375 106.511719 C 105.84375 109.445312 103.484375 111.804688 100.550781 111.804688 Z M 26.460938 111.804688 "/>
<path style="fill:none;stroke-width:3;stroke-linecap:round;stroke-linejoin:miter;stroke:rgb(12.941177%,12.941177%,12.941177%);stroke-opacity:1;stroke-miterlimit:4;" d="M 105.833643 233.504045 C 94.100389 233.504045 84.66379 224.067446 84.66379 212.334192 L 84.66379 169.994485 L 423.334574 169.994485 L 423.334574 212.334192 C 423.334574 224.067446 413.897975 233.504045 402.16472 233.504045 Z M 105.833643 233.504045 " transform="matrix(0.250024,0,0,0.250024,0,53.755133)"/>
<path style=" stroke:none;fill-rule:nonzero;fill:url(#linear2);" d="M 13.230469 11.585938 L 113.78125 11.585938 C 116.703125 11.585938 119.074219 13.953125 119.074219 16.875 L 119.074219 93.613281 C 119.074219 96.535156 116.703125 98.90625 113.78125 98.90625 L 13.230469 98.90625 C 10.308594 98.90625 7.9375 96.535156 7.9375 93.613281 L 7.9375 16.875 C 7.9375 13.953125 10.308594 11.585938 13.230469 11.585938 Z M 13.230469 11.585938 "/>
<path style="fill-rule:nonzero;fill:url(#linear3);stroke-width:3;stroke-linecap:round;stroke-linejoin:miter;stroke:rgb(12.941177%,12.941177%,12.941177%);stroke-opacity:1;stroke-miterlimit:4;" d="M 391.587605 -212.334192 C 397.430797 -212.334192 402.16472 -207.600269 402.16472 -201.757077 C 402.16472 -195.898261 397.430797 -191.164338 391.587605 -191.164338 C 385.744413 -191.164338 380.994867 -195.898261 380.994867 -201.757077 C 380.994867 -207.600269 385.744413 -212.334192 391.587605 -212.334192 Z M 391.587605 -212.334192 " transform="matrix(0.250024,0,0,-0.250024,0,53.755133)"/>
<path style=" stroke:none;fill-rule:nonzero;fill:rgb(100%,100%,100%);fill-opacity:0.392157;" d="M 13.230469 11.585938 C 10.296875 11.585938 7.9375 13.945312 7.9375 16.875 L 7.9375 18.492188 C 7.9375 15.558594 10.296875 13.199219 13.230469 13.199219 L 113.78125 13.199219 C 116.714844 13.199219 119.074219 15.558594 119.074219 18.492188 L 119.074219 16.875 C 119.074219 13.945312 116.714844 11.585938 113.78125 11.585938 Z M 13.230469 11.585938 "/>
<path style=" stroke:none;fill-rule:nonzero;fill:rgb(0%,0%,0%);fill-opacity:0.235294;" d="M 7.9375 91.835938 L 7.9375 93.613281 C 7.9375 96.542969 10.296875 98.90625 13.230469 98.90625 L 113.78125 98.90625 C 116.714844 98.90625 119.074219 96.542969 119.074219 93.613281 L 119.074219 91.835938 C 119.074219 94.769531 116.714844 97.128906 113.78125 97.128906 L 13.230469 97.128906 C 10.296875 97.128906 7.9375 94.769531 7.9375 91.835938 Z M 7.9375 91.835938 "/>
<path style=" stroke:none;fill-rule:nonzero;fill:rgb(0%,0%,0%);fill-opacity:1;" d="M 13.230469 11.210938 C 10.097656 11.210938 7.5625 13.742188 7.5625 16.875 L 7.5625 93.613281 C 7.5625 96.746094 10.097656 99.28125 13.230469 99.28125 L 113.78125 99.28125 C 116.914062 99.28125 119.449219 96.746094 119.449219 93.613281 L 119.449219 16.875 C 119.449219 13.742188 116.914062 11.210938 113.78125 11.210938 Z M 13.230469 11.960938 L 113.78125 11.960938 C 116.511719 11.960938 118.699219 14.144531 118.699219 16.875 L 118.699219 93.613281 C 118.699219 96.34375 116.511719 98.53125 113.78125 98.53125 L 13.230469 98.53125 C 10.5 98.53125 8.3125 96.34375 8.3125 93.613281 L 8.3125 16.875 C 8.3125 14.144531 10.5 11.960938 13.230469 11.960938 Z M 13.230469 11.960938 "/>
<path style="fill-rule:nonzero;fill:url(#linear4);stroke-width:2.616348;stroke-linecap:round;stroke-linejoin:round;stroke:rgb(12.941177%,12.941177%,12.941177%);stroke-opacity:1;stroke-miterlimit:4;" d="M 392.806239 -126.227227 C 389.509679 -126.227227 386.197495 -124.508641 384.494533 -121.07147 L 366.027546 -84.15312 C 362.934092 -77.981835 367.433662 -70.70128 374.339252 -70.70128 L 383.650863 -70.70128 L 383.650863 85.330695 L 136.080755 -95.183317 L 141.517736 -102.651354 C 144.517449 -106.744713 143.642533 -112.462917 139.658538 -115.509501 C 139.53355 -115.618865 139.392939 -115.712606 139.267951 -115.806348 C 138.143058 -116.571899 136.877554 -117.071852 135.549556 -117.306204 L 94.834694 -124.133677 C 87.288539 -125.399181 81.523465 -117.50931 85.038754 -110.69746 L 103.990069 -74.029087 C 107.161642 -67.889048 115.692077 -67.232861 119.769813 -72.810453 L 125.206793 -80.27849 L 365.699452 95.095387 L 134.784004 95.095387 L 134.784004 85.861894 C 134.784004 80.612395 130.456292 76.409672 125.206793 76.565907 C 123.863172 76.612777 122.535173 76.940871 121.31654 77.550188 L 84.39819 96.001551 C 77.555094 99.438723 77.555094 109.219039 84.39819 112.640587 L 121.31654 131.107573 C 127.503449 134.201028 134.784004 129.701458 134.784004 122.780244 L 134.784004 113.54675 L 394.649813 113.54675 C 398.774419 113.54675 402.102226 109.437768 402.102226 104.328881 L 402.102226 -70.70128 L 411.273225 -70.70128 C 416.507101 -70.70128 420.725448 -75.028992 420.569213 -80.27849 C 420.522342 -81.622112 420.194248 -82.95011 419.584932 -84.15312 L 401.133569 -121.07147 C 399.414983 -124.508641 396.102799 -126.227227 392.806239 -126.227227 Z M 426.381158 -102.245143 C 425.553112 -101.463967 424.912548 -100.557804 424.443843 -99.589146 Z M 426.381158 -102.245143 " transform="matrix(0.250024,0,0,0.250024,0,53.755133)"/>
</g>
</svg>

<svg xmlns="http://www.w3.org/2000/svg" width="128pt" height="128pt" viewBox="0 0 128 128"><defs><linearGradient id="a" gradientUnits="userSpaceOnUse" x1="254" y1="233.5" x2="254" y2="254.667" gradientTransform="matrix(.25002 0 0 .25002 0 53.755)"><stop offset="0" stop-opacity=".275"/><stop offset="1" stop-opacity="0"/></linearGradient><radialGradient id="b" gradientUnits="userSpaceOnUse" cx="450.909" cy="189.579" fx="450.909" fy="189.579" r="21.167" gradientTransform="matrix(0 -.31253 -.56255 0 200.584 254.381)"><stop offset="0" stop-opacity=".314"/><stop offset=".222" stop-opacity=".275"/><stop offset="1" stop-opacity="0"/></radialGradient><radialGradient id="c" gradientUnits="userSpaceOnUse" cx="450.909" cy="189.579" fx="450.909" fy="189.579" r="21.167" gradientTransform="matrix(0 .31253 .56255 0 -73.572 -30.11)"><stop offset="0" stop-opacity=".314"/><stop offset=".222" stop-opacity=".275"/><stop offset="1" stop-opacity="0"/></radialGradient><radialGradient id="d" gradientUnits="userSpaceOnUse" cx="450.909" cy="189.579" fx="450.909" fy="189.579" r="21.167" gradientTransform="matrix(0 -.31253 .56255 0 -73.572 254.381)"><stop offset="0" stop-opacity=".314"/><stop offset=".222" stop-opacity=".275"/><stop offset="1" stop-opacity="0"/></radialGradient><radialGradient id="e" gradientUnits="userSpaceOnUse" cx="450.909" cy="189.579" fx="450.909" fy="189.579" r="21.167" gradientTransform="matrix(0 .31253 -.56255 0 200.584 -30.11)"><stop offset="0" stop-opacity=".314"/><stop offset=".222" stop-opacity=".275"/><stop offset="1" stop-opacity="0"/></radialGradient><linearGradient id="f" gradientUnits="userSpaceOnUse" x1="840" y1="1455.118" x2="840" y2="1695.118" gradientTransform="matrix(.06615 0 0 -.06615 0 208.395)"><stop offset="0" stop-color="#616161"/><stop offset="1" stop-color="#424242"/></linearGradient><linearGradient id="g" gradientUnits="userSpaceOnUse" x1="306.917" y1="-25.792" x2="305.955" y2="-141.415" gradientTransform="matrix(.3014 0 0 .86965 -23.416 134.565)"><stop offset="0" stop-color="#b0bec5"/><stop offset="1" stop-color="#cfd8dc"/></linearGradient><linearGradient id="h" gradientUnits="userSpaceOnUse" x1="444.5" y1="185.875" x2="444.5" y2="148.833" gradientTransform="matrix(.5 0 0 .57143 169.333 -297.38)"><stop offset="0" stop-color="#4db6ac"/><stop offset="1" stop-color="#009688"/></linearGradient><linearGradient id="i" gradientUnits="userSpaceOnUse" x1="960" y1="1415.118" x2="960" y2="295.118" gradientTransform="matrix(.23075 0 0 .23075 32.91 -194.52)"><stop offset="0" stop-color="#ef5350"/><stop offset="1" stop-color="#e57373"/></linearGradient></defs><path d="M31.754 112.137h63.504v5.293H31.754zm0 0" fill="url(#a)"/><path d="M95.258 112.137h10.586v-5.293H95.258zm0 0" fill="url(#b)"/><path d="M31.754 112.137H21.168v5.293h10.586zm0 0" fill="url(#c)"/><path d="M31.754 112.137H21.168v-5.293h10.586zm0 0" fill="url(#d)"/><path d="M95.258 112.137h10.586v5.293H95.258zm0 0" fill="url(#e)"/><path d="M26.46 112.137a5.28 5.28 0 0 1-5.292-5.293V96.258h84.676v10.586a5.28 5.28 0 0 1-5.293 5.293zm0 0" fill="url(#f)"/><path d="M26.46 111.805a5.28 5.28 0 0 1-5.292-5.293v-.66c0 2.93 2.36 5.293 5.293 5.293h74.09a5.282 5.282 0 0 0 5.293-5.293v.66a5.28 5.28 0 0 1-5.293 5.293zm0 0" fill-opacity=".235"/><path d="M26.461 112.137a5.28 5.28 0 0 1-5.293-5.293V96.258h84.676v10.586a5.28 5.28 0 0 1-5.293 5.293zm0 0" fill="none" stroke-width=".7500600000000001" stroke-linecap="round" stroke="#212121"/><path d="M13.23 11.586h100.551a5.291 5.291 0 0 1 5.293 5.289v76.738a5.295 5.295 0 0 1-5.293 5.293H13.231a5.295 5.295 0 0 1-5.293-5.293V16.875a5.291 5.291 0 0 1 5.292-5.29zm0 0" fill="url(#g)"/><path d="M391.588-212.334c5.843 0 10.577 4.734 10.577 10.577 0 5.859-4.734 10.593-10.577 10.593-5.844 0-10.593-4.734-10.593-10.593 0-5.843 4.75-10.577 10.593-10.577zm0 0" transform="matrix(.25002 0 0 -.25002 0 53.755)" fill="url(#h)" stroke-width="3" stroke-linecap="round" stroke="#212121"/><path d="M13.23 11.586a5.279 5.279 0 0 0-5.293 5.289v1.617A5.28 5.28 0 0 1 13.23 13.2h100.551a5.28 5.28 0 0 1 5.293 5.293v-1.617c0-2.93-2.36-5.29-5.293-5.29zm0 0" fill="#fff" fill-opacity=".392"/><path d="M7.938 91.836v1.777c0 2.93 2.359 5.293 5.292 5.293h100.551a5.282 5.282 0 0 0 5.293-5.293v-1.777a5.28 5.28 0 0 1-5.293 5.293H13.231a5.28 5.28 0 0 1-5.293-5.293zm0 0" fill-opacity=".235"/><path d="M13.23 11.21a5.661 5.661 0 0 0-5.668 5.665v76.738a5.665 5.665 0 0 0 5.668 5.668h100.551a5.665 5.665 0 0 0 5.668-5.668V16.875a5.661 5.661 0 0 0-5.668-5.664zm0 .75h100.551a4.896 4.896 0 0 1 4.918 4.915v76.738a4.9 4.9 0 0 1-4.918 4.918H13.231a4.9 4.9 0 0 1-4.918-4.918V16.875a4.896 4.896 0 0 1 4.917-4.914zm0 0"/><path d="M392.806-126.227c-3.296 0-6.609 1.718-8.311 5.156l-18.467 36.918c-3.094 6.171 1.406 13.452 8.311 13.452h9.312V85.33L136.08-95.183l5.437-7.468c3-4.094 2.125-9.812-1.86-12.859-.124-.109-.265-.203-.39-.296a9.53 9.53 0 0 0-3.718-1.5l-40.715-6.828c-7.546-1.265-13.312 6.625-9.796 13.437L103.99-74.03c3.172 6.14 11.702 6.796 15.78 1.219l5.437-7.468L365.699 95.095H134.784v-9.233a9.293 9.293 0 0 0-9.577-9.296 9.428 9.428 0 0 0-3.89.984L84.398 96.002c-6.843 3.437-6.843 13.217 0 16.639l36.919 18.467c6.186 3.093 13.467-1.407 13.467-8.328v-9.233H394.65c4.124 0 7.452-4.11 7.452-9.218v-175.03h9.171c5.234 0 9.452-4.328 9.296-9.577a9.297 9.297 0 0 0-.984-3.875l-18.451-36.918c-1.719-3.438-5.031-5.156-8.328-5.156zm33.575 23.982a9.062 9.062 0 0 0-1.937 2.656zm0 0" transform="matrix(.25002 0 0 .25002 0 53.755)" fill="url(#i)" stroke-width="2.616" stroke-linecap="round" stroke-linejoin="round" stroke="#212121"/></svg>
